src/dark/hiso font dark_i.svg

<svg xmlns="http://www.w3.org/2000/svg" width="54" height="126" viewBox="0 0 54 126"><path fill="#000101" d="M3 40.856l30 14.999v56.292l-30-15v-56.291m-3-4.854v63l36 17.998v-63l-36-17.998zm3-22.144l30 14.998v11.292l-30-14.998v-11.292m-3-4.854v18l36 17.998v-18l-36-17.998z"/></svg>

<svg xmlns="http://www.w3.org/2000/svg" width="54" height="126"><path fill="#000101" d="M3 40.856l30 14.999v56.292l-30-15V40.856m-3-4.854v63L36 117V54L0 36.002zm3-22.144l30 14.998v11.292L3 25.15V13.858M0 9.004v18l36 17.998v-18L0 9.004z"/></svg>
